outputs/icons/action/calendar_yearly_round.svg

<svg xmlns="http://www.w3.org/2000/svg" width="1200" height="1200" fill="none"><g fill="#000" clip-path="url(#a)"><path d="M400 650c27.614 0 50-22.385 50-50s-22.386-50-50-50-50 22.385-50 50 22.386 50 50 50M450 750c0 27.615-22.386 50-50 50s-50-22.385-50-50 22.386-50 50-50 50 22.385 50 50M400 950c27.614 0 50-22.385 50-50s-22.386-50-50-50-50 22.385-50 50 22.386 50 50 50M650 600c0 27.615-22.385 50-50 50s-50-22.385-50-50 22.385-50 50-50 50 22.385 50 50M600 800c27.615 0 50-22.385 50-50s-22.385-50-50-50-50 22.385-50 50 22.385 50 50 50M650 900c0 27.615-22.385 50-50 50s-50-22.385-50-50 22.385-50 50-50 50 22.385 50 50M800 650c27.615 0 50-22.385 50-50s-22.385-50-50-50-50 22.385-50 50 22.385 50 50 50M850 750c0 27.615-22.385 50-50 50s-50-22.385-50-50 22.385-50 50-50 50 22.385 50 50M800 950c27.615 0 50-22.385 50-50s-22.385-50-50-50-50 22.385-50 50 22.385 50 50 50"/><path fill-rule="evenodd" d="M900 200h50c55 0 100 45 100 100v700c0 55-45 100-100 100H250c-55.5 0-100-45-100-100l.5-700c0-55 44-100 99.5-100h50v-50c0-27.5 22.5-50 50-50s50 22.5 50 50v50h400v-50c0-27.5 22.5-50 50-50s50 22.5 50 50zm0 800c27.5 0 50-22.5 50-50V450H250v500c0 27.5 22.5 50 50 50z"/></g><defs><clipPath id="a"><path fill="#fff" d="M0 0h1200v1200H0z"/></clipPath></defs></svg>

<svg width="1200" height="1200" viewBox="0 0 1200 1200" fill="none" xmlns="http://www.w3.org/2000/svg"><g clip-path="url(#clip0_787_1860)"><path fill-rule="evenodd" d="M900 200H950C1005 200 1050 245 1050 300V1000C1050 1055 1005 1100 950 1100H250C194.5 1100 150 1055 150 1000L150.5 300C150.5 245 194.5 200 250 200H300V150C300 122.5 322.5 100 350 100C377.5 100 400 122.5 400 150V200H800V150C800 122.5 822.5 100 850 100C877.5 100 900 122.5 900 150V200ZM900 1000C927.5 1000 950 977.5 950 950V450H250V950C250 977.5 272.5 1000 300 1000H900ZM400 650C427.614 650 450 627.615 450 600C450 572.385 427.614 550 400 550C372.386 550 350 572.385 350 600C350 627.615 372.386 650 400 650ZM450 750C450 777.615 427.614 800 400 800C372.386 800 350 777.615 350 750C350 722.385 372.386 700 400 700C427.614 700 450 722.385 450 750ZM400 950C427.614 950 450 927.615 450 900C450 872.385 427.614 850 400 850C372.386 850 350 872.385 350 900C350 927.615 372.386 950 400 950ZM650 600C650 627.615 627.615 650 600 650C572.385 650 550 627.615 550 600C550 572.385 572.385 550 600 550C627.615 550 650 572.385 650 600ZM600 800C627.615 800 650 777.615 650 750C650 722.385 627.615 700 600 700C572.385 700 550 722.385 550 750C550 777.615 572.385 800 600 800ZM650 900C650 927.615 627.615 950 600 950C572.385 950 550 927.615 550 900C550 872.385 572.385 850 600 850C627.615 850 650 872.385 650 900ZM800 650C827.615 650 850 627.615 850 600C850 572.385 827.615 550 800 550C772.385 550 750 572.385 750 600C750 627.615 772.385 650 800 650ZM850 750C850 777.615 827.615 800 800 800C772.385 800 750 777.615 750 750C750 722.385 772.385 700 800 700C827.615 700 850 722.385 850 750ZM800 950C827.615 950 850 927.615 850 900C850 872.385 827.615 850 800 850C772.385 850 750 872.385 750 900C750 927.615 772.385 950 800 950Z" fill="#1D1E23"/></g><defs><clipPath id="clip0_787_1860"><path width="24" fill="white" d="M0 0H1200V1200H0V0z"/></clipPath></defs></svg>
